X:1
T:For He's a Jolly Good Fellow
M:6/8
L:1/8
K:G
 d| B2 B BAB| c3 B2 B| A2 A AGA| B3 G2 A| B2 B BAB| c3 e2 e| dedc-B A|\
 G3- G2 B| ddd e2 e| d3- d2 d| BBB c2 c| B3- BG-A| B2 B BAB| c3 B2 B|\
 A2 A AGA| B3 G2 A| B2 B BAB| c2- d e2 e| ded c2 A| G3- G2||
